X:1
T:[ID 1-100b]
T:[ID 1-100b]
T:Bezeichnung standardisiert: La Jalousie; Schartlusie In dieser Quelle auch als: Schartlusie. bey den Alten in der Kam?er In anderer Quelle: Pannkauken-Tanz - Hs. aus Arendsee (Anm. S. Wascher);  La Jalousie - E. A. Jayme, 1717 (Anm. S. Wascher);  La Jalousie - Michel Corette, 1783 (Anm. S. Wascher);  La Jalousie - R. A. Feuillet, 1706 (Anm. S. Wascher);  Contre Danze 128 - J. de Gruytters 1746 (Anm. Th. Behr) \"Ahnlich in anderer Quelle: 2. Sesgen. - Drey\sser 1720 (Anm. S. Wascher);
T:Urheber unbekannt Erstbeleg: 1706 (Datum in der schriftlichen Quelle) Datum in der hier transkribierten schriftlichen Quelle: vermutlich vor 1767
C:Urheber unbekannt
C:Erstbeleg: 1706 (Datum in der schriftlichen Quelle)
C:Datum in der hier transkribierten schriftlichen Quelle: vermutlich vor 1767
L:1/8
M:4/4
K:Dmin
V:1 treble 
V:1
 d2 e2 f2 e2 | dfed ^c2 A2 | d2 e2 f2 e2 | defg a4 :: g2 ga g2 g2 | g2 ga g4 | g2 fg a2 g2 | %7
 f4 e4 |"^O)" defg a4 | dfed ^c2 A2 |"^O)" defg a4 | dfed ^c2 A2 | a2 ga bagf | e4 d4 :| %14

